Assets/pieces/Liberator_Black.svg

<svg xmlns="http://www.w3.org/2000/svg" viewBox="0 0 78.57 98.02"><defs><style>.cls-1{fill:#fff;stroke:#000;}</style></defs><title>Liberator_Black</title><g id="Слой_2" data-name="Слой 2"><g id="Слой_1-2" data-name="Слой 1"><path d="M26.07,0.5H32.07C34.37,0.77,36.66,1.23,38.96,1.29C47.45,1.51,55.96,1.56,64.42,1.75C68.69,1.84,68.85,2.08,68.85,6.36C68.85,9.530000000000001,68.47999999999999,12.74,68.85,15.84C69.85,23.12,67.96,28.84,61.16,32.46A4.65,4.65,0,0,0,58.809999999999995,38.410000000000004C60.28,43,62,47.47,63.46,52C64.46000000000001,54.87,66.46000000000001,55.5,69.29,55.54S75.14,56.15,78.07000000000001,56.48V74.47999999999999C73.24,81.24,68.36,88,63.61,94.74A5.89,5.89,0,0,1,57.82,97.50999999999999C40.37,96.66,22.91,96,5.46,95.26C1.42,95.09,0.69,94.19,0.74,90C0.74,87,1.3399999999999999,83.9,0.74,81C-0.26,76.34,1.95,73.66,5.07,70.81C10.83,65.55,16.79,60.31,17.77,51.81C18.09,49.02,18.82,46.27,19.3,43.49C20.07,38.97,19.3,38.07,14.510000000000002,37.78C13.350000000000001,37.71,12.190000000000001,37.51,11.030000000000001,37.51C8.340000000000002,37.51,7.170000000000002,36.35,7.230000000000001,33.51C7.360000000000001,27.349999999999998,7.330000000000001,21.189999999999998,7.230000000000001,15.029999999999998A5.12,5.12,0,0,1,10.31,10C15.67,7,20.83,3.68,26.07,0.5ZM54.43,69.88C52.28,59.629999999999995,50.43,50.239999999999995,48.19,40.879999999999995C47.96,39.879999999999995,45.82,38.809999999999995,44.489999999999995,38.709999999999994C38.69,38.25999999999999,32.87,38.269999999999996,27.069999999999993,37.88999999999999C24.289999999999992,37.709999999999994,23.429999999999993,38.88999999999999,22.849999999999994,41.449999999999996C21.209999999999994,48.88999999999999,19.179999999999993,56.239999999999995,17.299999999999994,63.62C16.989999999999995,64.85,16.649999999999995,66.08,16.129999999999995,68.06C29.19,69.74,41.79,69.52,54.43,69.88ZM50.68,35.55C50.75,29.979999999999997,50.75,24.879999999999995,50.93,19.779999999999998C51.03,16.779999999999998,49.79,15.679999999999998,46.81,15.589999999999996C36.32,15.259999999999996,25.810000000000002,14.699999999999996,15.350000000000001,14.279999999999996C13.920000000000002,14.219999999999995,12.48,14.429999999999996,10.430000000000001,14.559999999999995C10.430000000000001,20.079999999999995,10.530000000000001,25.209999999999994,10.430000000000001,30.329999999999995C10.340000000000002,33.33,11.560000000000002,34.41,14.530000000000001,34.48C24.36,34.72,34.18,35.19,44,35.54C45.93,35.62,47.9,35.55,50.68,35.55ZM58.89,80.55A30.7,30.7,0,0,0,55.75,80Q34.09,79.1,12.43,78.26C2.5299999999999994,77.89,3.83,77.82000000000001,3.8100000000000005,86.62C3.8100000000000005,91.94,4.010000000000001,92.15,9.440000000000001,92.39Q30.610000000000003,93.32000000000001,51.769999999999996,94.16C53.089999999999996,94.16,54.419999999999995,94.16,55.769999999999996,94.24C57.769999999999996,94.3,58.9,93.38,58.91,91.3C58.9,87.87,58.89,84.4,58.89,80.52ZM17.64,9.61L17.88,10.85C27.47,11.33,37.08,11.58,46.65,12.36C52.53,12.84,56.14,9.899999999999999,60.17,5.22C57.78,4.949999999999999,56.17,4.67,54.620000000000005,4.609999999999999C47.31,4.33,40,4.44,32.7,3.78C26.44,3.21,22,6.18,17.64,9.61ZM7.460000000000001,74.61C24.39,75.32,40.65,76.02,56.910000000000004,76.61A4.3,4.3,0,0,0,60.06,75.61C64.06,70.45,67.91,65.15,71.81,59.89L70.81,58.62C69.65,59.239999999999995,68.09,59.62,67.39,60.529999999999994C64.87,63.989999999999995,62.8,67.78,60.22,71.19A5.71,5.71,0,0,1,56.1,73.25999999999999C41.5,72.57999999999998,26.900000000000002,71.77,12.329999999999998,70.74C9.51,70.49,8.39,71.48,7.46,74.57ZM54.55,32.05C64.84,29.189999999999998,69.39,17.489999999999995,64.17999999999999,7.769999999999996A76.58,76.58,0,0,0,57.459999999999994,12.769999999999996C56.209999999999994,13.929999999999996,54.78999999999999,15.619999999999996,54.67999999999999,17.159999999999997C54.32,22,54.55,27,54.55,32.05ZM58,66.74C63.26,63.41,64.1,61.56999999999999,62.55,57.739999999999995C60.38,52.33,58.28,46.92,56,41.59C55.56,40.59,54.43,39.81,53.62,38.940000000000005C53.01,40.09,51.769999999999996,41.32000000000001,51.9,42.400000000000006A94.93,94.93,0,0,0,58,66.74ZM74.34,64.36A17.88,17.88,0,0,0,71.34,66.77C68.71000000000001,70.17,66.06,73.57,63.68000000000001,77.14S62.260000000000005,84.84,63.25000000000001,88.85C66.45,85.27,69,81.38,72,77.93C75.47,73.94,75,69.6,74.33,64.36Z" fill="#fff" stroke="#000" /><path d="M54.43,69.88C41.79,69.52,29.19,69.74,16.130000000000003,68.1C16.650000000000002,66.1,16.990000000000002,64.89,17.300000000000004,63.66C19.180000000000003,56.279999999999994,21.210000000000004,48.92999999999999,22.850000000000005,41.489999999999995C23.430000000000003,38.88999999999999,24.290000000000006,37.74999999999999,27.070000000000004,37.92999999999999C32.870000000000005,38.309999999999995,38.690000000000005,38.29999999999999,44.49000000000001,38.74999999999999C45.82000000000001,38.849999999999994,47.96000000000001,39.92999999999999,48.19000000000001,40.919999999999995C50.4,50.24,52.28,59.63,54.43,69.88Z"/><path d="M50.68,35.55C47.9,35.55,45.93,35.62,43.96,35.55C34.14,35.199999999999996,24.32,34.73,14.490000000000002,34.489999999999995C11.490000000000002,34.419999999999995,10.3,33.37,10.390000000000002,30.339999999999996C10.530000000000003,25.219999999999995,10.390000000000002,20.089999999999996,10.390000000000002,14.569999999999997C12.440000000000001,14.439999999999996,13.880000000000003,14.229999999999997,15.310000000000002,14.289999999999997C25.800000000000004,14.709999999999997,36.31,15.289999999999997,46.77,15.599999999999998C49.77,15.689999999999998,50.99,16.799999999999997,50.89,19.79C50.75,24.88,50.75,30,50.68,35.55Z"/><path d="M58.89,80.52C58.89,84.39999999999999,58.89,87.86999999999999,58.89,91.33C58.89,93.41,57.79,94.33,55.75,94.27C54.42,94.27,53.09,94.27,51.75,94.19Q30.6,93.32,9.44,92.42C4,92.18,3.8,92,3.81,86.65C3.81,77.85000000000001,2.5300000000000002,77.92,12.43,78.29Q34.09,79.1,55.75,80A30.7,30.7,0,0,1,58.89,80.52Z"/><path d="M17.64,9.61C22.04,6.18,26.44,3.209999999999999,32.7,3.7799999999999994C39.97,4.4399999999999995,47.31,4.329999999999999,54.620000000000005,4.609999999999999C56.21000000000001,4.669999999999999,57.78,4.949999999999999,60.17,5.22C56.17,9.899999999999999,52.53,12.84,46.650000000000006,12.36C37.080000000000005,11.58,27.470000000000006,11.36,17.880000000000006,10.85Z"/><path d="M7.46,74.57C8.39,71.47999999999999,9.51,70.49,12.33,70.69C26.9,71.69,41.5,72.53,56.1,73.21A5.71,5.71,0,0,0,60.22,71.14C62.8,67.73,64.87,63.94,67.39,60.480000000000004C68.09,59.480000000000004,69.65,59.190000000000005,70.81,58.57000000000001L71.81,59.84000000000001C67.91,65.10000000000001,64.08,70.4,60.06,75.56000000000002A4.3,4.3,0,0,1,56.910000000000004,76.56000000000002C40.65,76,24.39,75.28,7.46,74.57Z"/><path d="M54.55,32.05C54.55,26.97,54.32,22.049999999999997,54.68,17.159999999999997C54.79,15.619999999999997,56.21,13.929999999999996,57.46,12.769999999999996A76.58,76.58,0,0,1,64.18,7.769999999999996C69.39,17.49,64.84,29.19,54.55,32.05Z"/><path d="M58,66.74A94.93,94.93,0,0,1,51.91,42.4C51.779999999999994,41.32,53.019999999999996,40.089999999999996,53.629999999999995,38.94C54.44,39.809999999999995,55.56999999999999,40.559999999999995,56.01,41.589999999999996C58.28,46.919999999999995,60.379999999999995,52.33,62.54,57.709999999999994C64.09,61.57,63.25,63.41,58,66.74Z"/><path d="M74.33,64.36C75,69.6,75.47,73.94,72,77.93C69,81.38000000000001,66.47,85.27000000000001,63.26,88.85000000000001C62.26,84.85000000000001,61.19,80.85000000000001,63.69,77.14000000000001S68.69,70.14000000000001,71.35,66.77000000000001A17.88,17.88,0,0,1,74.33,64.36Z"/></g></g></svg>

<svg xmlns="http://www.w3.org/2000/svg" viewBox="0 0 78.57 98.02"><defs><style>.cls-1{fill:#fff;stroke:#000;}</style></defs><title>Liberator_Black</title><g id="Слой_2" data-name="Слой 2"><g id="Слой_1-2" data-name="Слой 1"><path class="cls-1" d="M26.07.5h6c2.3.27,4.59.73,6.89.79,8.49.22,17,.27,25.46.46,4.27.09,4.43.33,4.43,4.61,0,3.17-.37,6.38,0,9.48,1,7.28-.89,13-7.69,16.62a4.65,4.65,0,0,0-2.35,5.95C60.28,43,62,47.47,63.46,52c1,2.87,3,3.5,5.83,3.54s5.85.61,8.78.94v18C73.24,81.24,68.36,88,63.61,94.74a5.89,5.89,0,0,1-5.79,2.77C40.37,96.66,22.91,96,5.46,95.26,1.42,95.09.69,94.19.74,90c0-3,.6-6.1,0-9-1-4.66,1.21-7.34,4.33-10.19,5.76-5.26,11.72-10.5,12.7-19,.32-2.79,1.05-5.54,1.53-8.32.77-4.52,0-5.42-4.79-5.71-1.16-.07-2.32-.27-3.48-.27-2.69,0-3.86-1.16-3.8-4,.13-6.16.1-12.32,0-18.48A5.12,5.12,0,0,1,10.31,10C15.67,7,20.83,3.68,26.07.5ZM54.43,69.88c-2.15-10.25-4-19.64-6.24-29-.23-1-2.37-2.07-3.7-2.17-5.8-.45-11.62-.44-17.42-.82-2.78-.18-3.64,1-4.22,3.56-1.64,7.44-3.67,14.79-5.55,22.17-.31,1.23-.65,2.46-1.17,4.44C29.19,69.74,41.79,69.52,54.43,69.88ZM50.68,35.55c.07-5.57.07-10.67.25-15.77.1-3-1.14-4.1-4.12-4.19-10.49-.33-21-.89-31.46-1.31-1.43-.06-2.87.15-4.92.28,0,5.52.1,10.65,0,15.77-.09,3,1.13,4.08,4.1,4.15,9.83.24,19.65.71,29.47,1.06C45.93,35.62,47.9,35.55,50.68,35.55Zm8.21,45A30.7,30.7,0,0,0,55.75,80q-21.66-.9-43.32-1.74c-9.9-.37-8.6-.44-8.62,8.36,0,5.32.2,5.53,5.63,5.77q21.17.93,42.33,1.77c1.32,0,2.65,0,4,.08,2,.06,3.13-.86,3.14-2.94C58.9,87.87,58.89,84.4,58.89,80.52ZM17.64,9.61l.24,1.24c9.59.48,19.2.73,28.77,1.51,5.88.48,9.49-2.46,13.52-7.14-2.39-.27-4-.55-5.55-.61C47.31,4.33,40,4.44,32.7,3.78,26.44,3.21,22,6.18,17.64,9.61Zm-10.18,65c16.93.71,33.19,1.41,49.45,2a4.3,4.3,0,0,0,3.15-1c4-5.16,7.85-10.46,11.75-15.72l-1-1.27c-1.16.62-2.72,1-3.42,1.91-2.52,3.46-4.59,7.25-7.17,10.66a5.71,5.71,0,0,1-4.12,2.07c-14.6-.68-29.2-1.49-43.77-2.52C9.51,70.49,8.39,71.48,7.46,74.57ZM54.55,32.05c10.29-2.86,14.84-14.56,9.63-24.28a76.58,76.58,0,0,0-6.72,5c-1.25,1.16-2.67,2.85-2.78,4.39C54.32,22,54.55,27,54.55,32.05ZM58,66.74c5.26-3.33,6.1-5.17,4.55-9C60.38,52.33,58.28,46.92,56,41.59c-.44-1-1.57-1.78-2.38-2.65-.61,1.15-1.85,2.38-1.72,3.46A94.93,94.93,0,0,0,58,66.74Zm16.34-2.38a17.88,17.88,0,0,0-3,2.41c-2.63,3.4-5.28,6.8-7.66,10.37s-1.42,7.7-.43,11.71C66.45,85.27,69,81.38,72,77.93,75.47,73.94,75,69.6,74.33,64.36Z"/><path d="M54.43,69.88c-12.64-.36-25.24-.14-38.3-1.78.52-2,.86-3.21,1.17-4.44,1.88-7.38,3.91-14.73,5.55-22.17.58-2.6,1.44-3.74,4.22-3.56,5.8.38,11.62.37,17.42.82,1.33.1,3.47,1.18,3.7,2.17C50.4,50.24,52.28,59.63,54.43,69.88Z"/><path d="M50.68,35.55c-2.78,0-4.75.07-6.72,0-9.82-.35-19.64-.82-29.47-1.06-3-.07-4.19-1.12-4.1-4.15.14-5.12,0-10.25,0-15.77,2.05-.13,3.49-.34,4.92-.28,10.49.42,21,1,31.46,1.31,3,.09,4.22,1.2,4.12,4.19C50.75,24.88,50.75,30,50.68,35.55Z"/><path d="M58.89,80.52c0,3.88,0,7.35,0,10.81,0,2.08-1.1,3-3.14,2.94-1.33,0-2.66,0-4-.08Q30.6,93.32,9.44,92.42C4,92.18,3.8,92,3.81,86.65c0-8.8-1.28-8.73,8.62-8.36Q34.09,79.1,55.75,80A30.7,30.7,0,0,1,58.89,80.52Z"/><path d="M17.64,9.61c4.4-3.43,8.8-6.4,15.06-5.83,7.27.66,14.61.55,21.92.83,1.59.06,3.16.34,5.55.61-4,4.68-7.64,7.62-13.52,7.14-9.57-.78-19.18-1-28.77-1.51Z"/><path d="M7.46,74.57c.93-3.09,2.05-4.08,4.87-3.88,14.57,1,29.17,1.84,43.77,2.52a5.71,5.71,0,0,0,4.12-2.07c2.58-3.41,4.65-7.2,7.17-10.66.7-1,2.26-1.29,3.42-1.91l1,1.27c-3.9,5.26-7.73,10.56-11.75,15.72a4.3,4.3,0,0,1-3.15,1C40.65,76,24.39,75.28,7.46,74.57Z"/><path d="M54.55,32.05c0-5.08-.23-10,.13-14.89.11-1.54,1.53-3.23,2.78-4.39a76.58,76.58,0,0,1,6.72-5C69.39,17.49,64.84,29.19,54.55,32.05Z"/><path d="M58,66.74A94.93,94.93,0,0,1,51.91,42.4c-.13-1.08,1.11-2.31,1.72-3.46.81.87,1.94,1.62,2.38,2.65,2.27,5.33,4.37,10.74,6.53,16.12C64.09,61.57,63.25,63.41,58,66.74Z"/><path d="M74.33,64.36C75,69.6,75.47,73.94,72,77.93c-3,3.45-5.53,7.34-8.74,10.92-1-4-2.07-8,.43-11.71s5-7,7.66-10.37A17.88,17.88,0,0,1,74.33,64.36Z"/></g></g></svg>
